src/2-landmarks/assistant--guard-handle.svg

<svg width="1300" height="1000" viewBox="0 0 1300 1000" fill="none" xmlns="http://www.w3.org/2000/svg"><path d="M0 900h1300v100H0V900Zm1079.43-430.838c0-1.662-5.91-57.127-23.43-93.162-15.05-29.175-39.06-33.545-77.182-33.979-36.975-.426-67.042 5.516-82.944 33.197-15.442 36.104-30.279 89.186-30.279 89.186L814.001 502.5l-23.602 6.332c-9.235 2.478-14.204 12.493-10.591 21.345a11.913 11.913 0 0 0 11.631 7.397l41.062-2.074 79-43L897.997 718l1.5 156-15.599 6.406a20.002 20.002 0 0 0-12.401 18.501V900h93.5l-1.5-18a9.97 9.97 0 0 0 4.439-8.408L966.497 746l9.5-125 9 125v128a10 10 0 0 0 4 8l-1.5 18h92.003c0-7.632-4.4-14.58-11.3-17.842L1052 874.5l2-156.5-6.5-118.5 5.87 22.986c.08.318.32.569.64.657 12.05 3.376 23.88-6.04 23.29-18.546l-1.52-32.227s3.65-59.37 3.65-103.208Z" fill="#000"/><path d="M1072.43 472.47s-4.44-56.683-20.98-91.955c-14.2-28.557-36.99-30.07-72.959-30.495-34.892-.416-62.265 3.4-77.27 30.495-14.572 35.339-28.22 88.985-28.22 88.985l-56 39.5-27.066 8.935a6.293 6.293 0 0 0 2.424 12.252l37.424-2.694 80.218-43.993 12.789-64.418a1.318 1.318 0 0 1 2.609.352l-4.898 68.066-3 30.5-3 55.855-9.5 143.153 2.5 161.007-21.216 9.112a9.998 9.998 0 0 0-6.052 9.022l-.065 3.851h77.833l-2.09-24.01a4.964 4.964 0 0 0 4.993-5.049l-2.158-126.821 13.379-145.808a4.504 4.504 0 0 1 8.974.045l11.912 145.778-.726 127.575a4.286 4.286 0 0 0 4.316 4.31L994.61 900h76.89c0-5.192-2.97-9.927-7.64-12.189l-20.18-9.771 2.16-161.02L1037 518l-3-30-5.31-67.565c-.1-1.311.94-2.43 2.25-2.424 1.13.005 2.08.843 2.22 1.96l6.35 49.119 8.49 104.403 11.22 42.712c.06.251.29.425.55.425 6.61 0 11.84-5.604 11.38-12.2l-2.16-30.937 3.44-101.023Z" fill="#fff"/><path d="M989.422 336.086c-3.769 1.408-10.806 1.91-12.649 1.914 0 0-8.3-.069-13.135-1.914-5.448-2.079-8.483-4.109-12.162-8.575-2.489-3.022-4.438-8.223-5.321-10.853-.362-1.079-.612-2.188-.802-3.31l-4.093-24.154s-.495-3.492-.486-5.742c.019-5.351.745-8.493 2.918-13.398 2.233-5.038 4.185-7.735 8.271-11.484 4.355-3.996 7.494-5.742 13.135-7.625 4.379-1.462 7.051-1.907 11.675-1.945 4.963.167 6.811.478 11.548 1.945 4.741 1.577 9.581 4.373 13.259 7.625 3.69 3.252 6.26 7.101 8.27 11.484s2.92 8.615 2.92 13.398c0 1.803-.2 3.959-.48 5.742l-4.87 23.833c-.25 1.229-.57 2.441-1.01 3.617-1.04 2.793-3.2 8.177-5.31 10.829-2.927 3.676-7.17 6.929-11.678 8.613Z" fill="#000"/><path d="M987.189 329.387c-3.036 1.186-8.705 1.609-10.189 1.613 0 0-6.687-.058-10.581-1.613-4.389-1.752-6.834-3.462-9.797-7.226-1.948-2.474-3.485-6.68-4.224-8.951-.338-1.039-.567-2.105-.741-3.184l-3.265-20.155s-.399-2.943-.392-4.839c.016-4.509.601-7.156 2.351-11.29 1.799-4.246 3.371-6.518 6.663-9.677 3.508-3.368 6.037-4.839 10.581-6.426 3.527-1.232 5.68-1.607 9.405-1.639 3.998.141 5.487.403 9.302 1.639 3.819 1.329 7.718 3.685 10.685 6.426 2.966 2.74 5.043 5.983 6.663 9.677s2.35 7.26 2.35 11.29c0 1.52-.16 3.337-.39 4.839l-3.88 19.862a24.563 24.563 0 0 1-.93 3.486c-.868 2.407-2.556 6.742-4.205 8.91-2.357 3.098-5.774 5.839-9.406 7.258Z" fill="#fff"/><path fill-rule="evenodd" clip-rule="evenodd" d="M944.002 264.97c.183 9.23 7.723 16.655 16.996 16.655h32c9.272 0 16.812-7.425 16.992-16.654l3.83-14.025c.67-2.46-.62-5.03-2.99-5.966l-31.996-12.631a5.005 5.005 0 0 0-3.671 0l-31.998 12.631a5 5 0 0 0-2.988 5.966l3.825 14.024Zm7.996 3.655H1002c0 3.314-2.688 6-6.002 6h-38a6 6 0 0 1-6-6Z" fill="#000"/><path d="m1004 261.625 3-11-30.002-11-30 11 3 11H1004Z" fill="#fff"/></svg>

<svg width="1300" height="1000" viewBox="0 0 1300 1000" fill="none" xmlns="http://www.w3.org/2000/svg">
<path d="M0 900H1300V1000H0V900Z" fill="black"/>
<path d="M1079.43 469.162C1079.43 467.5 1073.52 412.035 1056 376C1040.95 346.825 1016.94 342.455 978.818 342.021C941.843 341.595 911.776 347.537 895.874 375.218C880.432 411.322 865.595 464.404 865.595 464.404L814.001 502.5L790.399 508.832C781.164 511.31 776.195 521.325 779.808 530.177C781.72 534.863 786.384 537.829 791.439 537.574L832.501 535.5L911.501 492.5L897.997 718L899.497 874L883.898 880.406C876.396 883.488 871.497 890.796 871.497 898.907V900H964.997L963.497 882C966.304 880.129 967.974 876.965 967.936 873.592L966.497 746L975.997 621L984.997 746V874C984.997 877.148 986.479 880.111 988.997 882L987.497 900H1079.5C1079.5 892.368 1075.1 885.42 1068.2 882.158L1052 874.5L1054 718L1047.5 599.5L1053.37 622.486C1053.45 622.804 1053.69 623.055 1054.01 623.143C1066.06 626.519 1077.89 617.103 1077.3 604.597L1075.78 572.37C1075.78 572.37 1079.43 513 1079.43 469.162Z" fill="black"/>
<path d="M1072.43 472.47C1072.43 472.47 1067.99 415.787 1051.45 380.515C1037.25 351.958 1014.46 350.445 978.491 350.02C943.599 349.604 916.226 353.42 901.221 380.515C886.649 415.854 873.001 469.5 873.001 469.5L817.001 509L789.935 517.935C787.158 518.851 785.378 521.561 785.64 524.473C785.947 527.891 788.936 530.433 792.359 530.187L829.783 527.493L910.001 483.5L922.79 419.082C922.912 418.465 923.454 418.02 924.083 418.02C924.849 418.02 925.454 418.67 925.399 419.434L920.501 487.5L917.501 518L914.501 573.855L905.001 717.008L907.501 878.015L886.285 887.127C882.667 888.681 880.298 892.212 880.233 896.149L880.168 900H958.001L955.911 875.99C958.697 876.007 960.952 873.727 960.904 870.941L958.746 744.12L972.125 598.312C972.338 595.994 974.282 594.22 976.61 594.22C978.955 594.22 980.908 596.02 981.099 598.357L993.011 744.135L992.285 871.71C992.272 874.098 994.213 876.037 996.601 876.02L994.61 900H1071.5C1071.5 894.808 1068.53 890.073 1063.86 887.811L1043.68 878.04L1045.84 717.02L1037 518L1034 488L1028.69 420.435C1028.59 419.124 1029.63 418.005 1030.94 418.011C1032.07 418.016 1033.02 418.854 1033.16 419.971L1039.51 469.09L1048 573.493L1059.22 616.205C1059.28 616.456 1059.51 616.63 1059.77 616.63C1066.38 616.63 1071.61 611.026 1071.15 604.43L1068.99 573.493L1072.43 472.47Z" fill="white"/>
<path d="M989.422 336.086C985.653 337.494 978.616 337.996 976.773 338C976.773 338 968.473 337.931 963.638 336.086C958.19 334.007 955.155 331.977 951.476 327.511C948.987 324.489 947.038 319.288 946.155 316.658C945.793 315.579 945.543 314.47 945.353 313.348L941.26 289.194C941.26 289.194 940.765 285.702 940.774 283.452C940.793 278.101 941.519 274.959 943.692 270.054C945.925 265.016 947.877 262.319 951.963 258.57C956.318 254.574 959.457 252.828 965.098 250.945C969.477 249.483 972.149 249.038 976.773 249C981.736 249.167 983.584 249.478 988.321 250.945C993.062 252.522 997.902 255.318 1001.58 258.57C1005.27 261.822 1007.84 265.671 1009.85 270.054C1011.86 274.437 1012.77 278.669 1012.77 283.452C1012.77 285.255 1012.57 287.411 1012.29 289.194L1007.42 313.027C1007.17 314.256 1006.85 315.468 1006.41 316.644C1005.37 319.437 1003.21 324.821 1001.1 327.473C998.173 331.149 993.93 334.402 989.422 336.086Z" fill="black"/>
<path d="M987.189 329.387C984.153 330.573 978.484 330.996 977 331C977 331 970.313 330.942 966.419 329.387C962.03 327.635 959.585 325.925 956.622 322.161C954.674 319.687 953.137 315.481 952.398 313.21C952.06 312.171 951.831 311.105 951.657 310.026L948.392 289.871C948.392 289.871 947.993 286.928 948 285.032C948.016 280.523 948.601 277.876 950.351 273.742C952.15 269.496 953.722 267.224 957.014 264.065C960.522 260.697 963.051 259.226 967.595 257.639C971.122 256.407 973.275 256.032 977 256C980.998 256.141 982.487 256.403 986.302 257.639C990.121 258.968 994.02 261.324 996.987 264.065C999.953 266.805 1002.03 270.048 1003.65 273.742C1005.27 277.436 1006 281.002 1006 285.032C1006 286.552 1005.84 288.369 1005.61 289.871L1001.73 309.733C1001.5 310.917 1001.2 312.084 1000.8 313.219C999.932 315.626 998.244 319.961 996.595 322.129C994.238 325.227 990.821 327.968 987.189 329.387Z" fill="white"/>
<path fill-rule="evenodd" clip-rule="evenodd" d="M944.002 264.97C944.185 274.2 951.725 281.625 960.998 281.625H992.998C1002.27 281.625 1009.81 274.2 1009.99 264.971L1013.82 250.946C1014.49 248.486 1013.2 245.916 1010.83 244.98L978.834 232.349C977.655 231.884 976.342 231.884 975.163 232.349L943.165 244.98C940.794 245.916 939.506 248.486 940.177 250.946L944.002 264.97ZM951.998 268.625H1002C1002 271.939 999.312 274.625 995.998 274.625H957.998C954.685 274.625 951.998 271.939 951.998 268.625Z" fill="black"/>
<path d="M1004 261.625L1007 250.625L976.998 239.625L946.998 250.625L949.998 261.625H1004Z" fill="white"/>
</svg>
